X:45
T:Bavarian Air. WHG.044
R:waltz
S:W.H.Giles MS,Bampton,Oxfordshire,1839p44
O:England
H:donated by Mrs W.R.Kettlewell to VWML,Apr 1927.
A:Bampton, Oxfordshire
N:No introductory rest in MS.
Z:PJHeadford – VMP 2009
M:3/4
L:1/8
Q:1/4=160
K:D
z2|D>D F>F A>A|f2d2 d>d|(e2g2) c>c|(d2f2) F>E|\
D>D F>F A>A|f2d2 d>d|c>da2 c2|d4||
|:d>d|(c2e2) d>c|d2f2 e>d|e2g2 f>d|f2a2 F>E|\
D>D F>F A>A|f2d2 d>d|c>ea2 c2|d4:|

